static/img/kroki/4abe725119cca28119221c95cfc2fa47.svg

<?xml version="1.0" encoding="us-ascii" standalone="no"?><svg xmlns="http://www.w3.org/2000/svg" xmlns:xlink="http://www.w3.org/1999/xlink" contentStyleType="text/css" height="252px" preserveAspectRatio="none" style="width:683px;height:252px;" version="1.1" viewBox="0 0 683 252" width="683px" zoomAndPan="magnify"><defs/><g><!--class aws_alb--><g id="elem_aws_alb"><rect codeLine="23" fill="#3D176E" height="39.7891" id="aws_alb" rx="2.5" ry="2.5" style="stroke:#000D19;stroke-width:0.5;" width="109" x="7" y="206.58"/><ellipse cx="22" cy="226.4745" fill="#ADD1B2" rx="11" ry="11" style="stroke:#181818;stroke-width:1.0;"/><path d="M24.9688,232.1152 Q24.3906,232.412 23.75,232.5527 Q23.1094,232.7089 22.4063,232.7089 Q19.9063,232.7089 18.5781,231.0683 Q17.2656,229.412 17.2656,226.287 Q17.2656,223.162 18.5781,221.5058 Q19.9063,219.8495 22.4063,219.8495 Q23.1094,219.8495 23.75,220.0058 Q24.4063,220.162 24.9688,220.4589 L24.9688,223.1777 Q24.3438,222.5995 23.75,222.3339 Q23.1563,222.0527 22.5313,222.0527 Q21.1875,222.0527 20.5,223.1308 Q19.8125,224.1933 19.8125,226.287 Q19.8125,228.3808 20.5,229.4589 Q21.1875,230.5214 22.5313,230.5214 Q23.1563,230.5214 23.75,230.2558 Q24.3438,229.9745 24.9688,229.3964 L24.9688,232.1152 Z " fill="#000000"/><text fill="#D9B8FF" font-family="Helvetica" font-size="17" lengthAdjust="spacing" textLength="67" x="41" y="232.3598">aws_alb</text></g><!--class aws_apigateway_rest_api--><g id="elem_aws_apigateway_rest_api"><rect codeLine="26" fill="#3D176E" height="39.7891" id="aws_apigateway_rest_api" rx="2.5" ry="2.5" style="stroke:#000D19;stroke-width:0.5;" width="256" x="151.5" y="206.58"/><ellipse cx="166.5" cy="226.4745" fill="#ADD1B2" rx="11" ry="11" style="stroke:#181818;stroke-width:1.0;"/><path d="M169.4688,232.1152 Q168.8906,232.412 168.25,232.5527 Q167.6094,232.7089 166.9063,232.7089 Q164.4063,232.7089 163.0781,231.0683 Q161.7656,229.412 161.7656,226.287 Q161.7656,223.162 163.0781,221.5058 Q164.4063,219.8495 166.9063,219.8495 Q167.6094,219.8495 168.25,220.0058 Q168.9063,220.162 169.4688,220.4589 L169.4688,223.1777 Q168.8438,222.5995 168.25,222.3339 Q167.6563,222.0527 167.0313,222.0527 Q165.6875,222.0527 165,223.1308 Q164.3125,224.1933 164.3125,226.287 Q164.3125,228.3808 165,229.4589 Q165.6875,230.5214 167.0313,230.5214 Q167.6563,230.5214 168.25,230.2558 Q168.8438,229.9745 169.4688,229.3964 L169.4688,232.1152 Z " fill="#000000"/><text fill="#D9B8FF" font-family="Helvetica" font-size="17" lengthAdjust="spacing" textLength="214" x="185.5" y="232.3598">aws_apigateway_rest_api</text></g><!--class aws_cloudfront_distribution--><g id="elem_aws_cloudfront_distribution"><rect codeLine="29" fill="#3D176E" height="39.7891" id="aws_cloudfront_distribution" rx="2.5" ry="2.5" style="stroke:#000D19;stroke-width:0.5;" width="274" x="142.5" y="7"/><ellipse cx="157.5" cy="26.8945" fill="#ADD1B2" rx="11" ry="11" style="stroke:#181818;stroke-width:1.0;"/><path d="M160.4688,32.5352 Q159.8906,32.832 159.25,32.9727 Q158.6094,33.1289 157.9063,33.1289 Q155.4063,33.1289 154.0781,31.4883 Q152.7656,29.832 152.7656,26.707 Q152.7656,23.582 154.0781,21.9258 Q155.4063,20.2695 157.9063,20.2695 Q158.6094,20.2695 159.25,20.4258 Q159.9063,20.582 160.4688,20.8789 L160.4688,23.5977 Q159.8438,23.0195 159.25,22.7539 Q158.6563,22.4727 158.0313,22.4727 Q156.6875,22.4727 156,23.5508 Q155.3125,24.6133 155.3125,26.707 Q155.3125,28.8008 156,29.8789 Q156.6875,30.9414 158.0313,30.9414 Q158.6563,30.9414 159.25,30.6758 Q159.8438,30.3945 160.4688,29.8164 L160.4688,32.5352 Z " fill="#000000"/><text fill="#D9B8FF" font-family="Helvetica" font-size="17" lengthAdjust="spacing" textLength="232" x="176.5" y="32.7798">aws_cloudfront_distribution</text></g><!--class aws_cognito_user_pool--><g id="elem_aws_cognito_user_pool"><rect codeLine="32" fill="#3D176E" height="39.7891" id="aws_cognito_user_pool" rx="2.5" ry="2.5" style="stroke:#000D19;stroke-width:0.5;" width="234" x="442.5" y="206.58"/><ellipse cx="457.5" cy="226.4745" fill="#ADD1B2" rx="11" ry="11" style="stroke:#181818;stroke-width:1.0;"/><path d="M460.4688,232.1152 Q459.8906,232.412 459.25,232.5527 Q458.6094,232.7089 457.9063,232.7089 Q455.4063,232.7089 454.0781,231.0683 Q452.7656,229.412 452.7656,226.287 Q452.7656,223.162 454.0781,221.5058 Q455.4063,219.8495 457.9063,219.8495 Q458.6094,219.8495 459.25,220.0058 Q459.9063,220.162 460.4688,220.4589 L460.4688,223.1777 Q459.8438,222.5995 459.25,222.3339 Q458.6563,222.0527 458.0313,222.0527 Q456.6875,222.0527 456,223.1308 Q455.3125,224.1933 455.3125,226.287 Q455.3125,228.3808 456,229.4589 Q456.6875,230.5214 458.0313,230.5214 Q458.6563,230.5214 459.25,230.2558 Q459.8438,229.9745 460.4688,229.3964 L460.4688,232.1152 Z " fill="#000000"/><text fill="#D9B8FF" font-family="Helvetica" font-size="17" lengthAdjust="spacing" textLength="192" x="476.5" y="232.3598">aws_cognito_user_pool</text></g><!--class aws_waf_web_acl--><g id="elem_aws_waf_web_acl"><rect codeLine="35" fill="#3D176E" height="39.7891" id="aws_waf_web_acl" rx="2.5" ry="2.5" style="stroke:#000D19;stroke-width:0.5;" width="191" x="184" y="106.79"/><ellipse cx="199" cy="126.6845" fill="#ADD1B2" rx="11" ry="11" style="stroke:#181818;stroke-width:1.0;"/><path d="M201.9688,132.3252 Q201.3906,132.622 200.75,132.7627 Q200.1094,132.9189 199.4063,132.9189 Q196.9063,132.9189 195.5781,131.2783 Q194.2656,129.622 194.2656,126.497 Q194.2656,123.372 195.5781,121.7158 Q196.9063,120.0595 199.4063,120.0595 Q200.1094,120.0595 200.75,120.2158 Q201.4063,120.372 201.9688,120.6689 L201.9688,123.3877 Q201.3438,122.8095 200.75,122.5439 Q200.1563,122.2627 199.5313,122.2627 Q198.1875,122.2627 197.5,123.3408 Q196.8125,124.4033 196.8125,126.497 Q196.8125,128.5908 197.5,129.6689 Q198.1875,130.7314 199.5313,130.7314 Q200.1563,130.7314 200.75,130.4658 Q201.3438,130.1845 201.9688,129.6064 L201.9688,132.3252 Z " fill="#000000"/><text fill="#D9B8FF" font-family="Helvetica" font-size="17" lengthAdjust="spacing" textLength="149" x="218" y="132.5698">aws_waf_web_acl</text></g><!--link aws_cloudfront_distribution to aws_waf_web_acl--><g id="link_aws_cloudfront_distribution_aws_waf_web_acl"><path codeLine="38" d="M279.5,47.22 C279.5,64.36 279.5,83.27 279.5,100.41 " fill="none" id="aws_cloudfront_distribution-to-aws_waf_web_acl" style="stroke:#1A83AF;stroke-width:2.0;"/><polygon fill="#1A83AF" points="279.5,106.41,283.5,97.41,279.5,101.41,275.5,97.41,279.5,106.41" style="stroke:#1A83AF;stroke-width:2.0;"/></g><!--link aws_waf_web_acl to aws_alb--><g id="link_aws_waf_web_acl_aws_alb"><path codeLine="39" d="M236.43,147.01 C198.21,164.15 148.144,186.6032 109.954,203.7432 " fill="none" id="aws_waf_web_acl-to-aws_alb" style="stroke:#1A83AF;stroke-width:2.0;"/><polygon fill="#1A83AF" points="104.48,206.2,114.3288,206.1642,109.0416,204.1527,111.0531,198.8655,104.48,206.2" style="stroke:#1A83AF;stroke-width:2.0;"/></g><!--link aws_waf_web_acl to aws_apigateway_rest_api--><g id="link_aws_waf_web_acl_aws_apigateway_rest_api"><path codeLine="40" d="M279.5,147.01 C279.5,164.15 279.5,183.06 279.5,200.2 " fill="none" id="aws_waf_web_acl-to-aws_apigateway_rest_api" style="stroke:#1A83AF;stroke-width:2.0;"/><polygon fill="#1A83AF" points="279.5,206.2,283.5,197.2,279.5,201.2,275.5,197.2,279.5,206.2" style="stroke:#1A83AF;stroke-width:2.0;"/></g><!--link aws_waf_web_acl to aws_cognito_user_pool--><g id="link_aws_waf_web_acl_aws_cognito_user_pool"><path codeLine="41" d="M334.82,147.01 C383.91,164.15 449.5757,187.0811 498.6357,204.2211 " fill="none" id="aws_waf_web_acl-to-aws_cognito_user_pool" style="stroke:#1A83AF;stroke-width:2.0;"/><polygon fill="#1A83AF" points="504.3,206.2,497.1229,199.4555,499.5798,204.5509,494.4843,207.0078,504.3,206.2" style="stroke:#1A83AF;stroke-width:2.0;"/></g><!--SRC=[ZP91JyCm38Nl_HMHTfwqCi6s2zAODC5bGemRGfNRE5sqDgwSb6eW_Zih0nGIjd6CtsVxFIiRBL5WtRYTgB7EaMrYjzeqm52BEJDr2wg8nK0fKED9A2x9kBF02ceKjrYzeDC5XCJZHXTRWzQA2q-wWM9RChL67iOx1cFt4XhdKOiAh9qxnpfl7Nfcv2oVAXMIuT31MAQJAummOedyXOn68vdEGkJigfEvVuYrVaMH-aTRaSF8PhJYaphfiYSyar7GR_sentkGKfjIN7grXuCdDiY_wkiDIEfwMa5b_JNM8IEvNOEBA1NEfb9D_eJlZi59qPzEG6Spg7BnbYJlVgdH9JZiO9SnMjU_GwIeg9MAzyapgUtXusWo4KQbqOworY9d3L4L0XsehCCyW-9BEZLy-3H8vzFnVFayl0wxat1Q1E-3_WEAevzlYb8c7m00]--></g></svg>

<svg xmlns="http://www.w3.org/2000/svg" width="683" height="252" viewBox="0 0 683 252"><rect width="109" height="39.789" x="7" y="206.58" fill="#3D176E" rx="2.5" ry="2.5" style="stroke:#000d19;stroke-width:.5"/><circle cx="22" cy="226.475" r="11" fill="#ADD1B2" style="stroke:#181818;stroke-width:1"/><path d="M24.969 232.115q-.578.297-1.219.438-.64.156-1.344.156-2.5 0-3.828-1.64-1.312-1.657-1.312-4.782t1.312-4.781q1.328-1.656 3.828-1.656.703 0 1.344.156.656.156 1.219.453v2.719q-.625-.578-1.219-.844-.594-.281-1.219-.281-1.343 0-2.031 1.078-.687 1.062-.687 3.156t.687 3.172q.688 1.062 2.031 1.062.625 0 1.219-.265.594-.281 1.219-.86z"/><text x="41" y="232.36" fill="#D9B8FF" font-family="Helvetica" font-size="17" textLength="67">aws_alb</text><rect width="256" height="39.789" x="151.5" y="206.58" fill="#3D176E" rx="2.5" ry="2.5" style="stroke:#000d19;stroke-width:.5"/><circle cx="166.5" cy="226.475" r="11" fill="#ADD1B2" style="stroke:#181818;stroke-width:1"/><path d="M169.469 232.115q-.578.297-1.219.438-.64.156-1.344.156-2.5 0-3.828-1.64-1.312-1.657-1.312-4.782t1.312-4.781q1.328-1.656 3.828-1.656.703 0 1.344.156.656.156 1.219.453v2.719q-.625-.578-1.219-.844-.594-.281-1.219-.281-1.344 0-2.031 1.078-.687 1.062-.687 3.156t.687 3.172q.688 1.062 2.031 1.062.625 0 1.219-.265.594-.281 1.219-.86z"/><text x="185.5" y="232.36" fill="#D9B8FF" font-family="Helvetica" font-size="17" textLength="214">aws_apigateway_rest_api</text><rect width="274" height="39.789" x="142.5" y="7" fill="#3D176E" rx="2.5" ry="2.5" style="stroke:#000d19;stroke-width:.5"/><circle cx="157.5" cy="26.895" r="11" fill="#ADD1B2" style="stroke:#181818;stroke-width:1"/><path d="M160.469 32.535q-.578.297-1.219.438-.64.156-1.344.156-2.5 0-3.828-1.64-1.312-1.657-1.312-4.782t1.312-4.781q1.328-1.656 3.828-1.656.703 0 1.344.156.656.156 1.219.453v2.719q-.625-.578-1.219-.844-.594-.281-1.219-.281-1.344 0-2.031 1.078-.687 1.062-.687 3.156t.687 3.172q.688 1.062 2.031 1.062.625 0 1.219-.265.594-.281 1.219-.86z"/><text x="176.5" y="32.78" fill="#D9B8FF" font-family="Helvetica" font-size="17" textLength="232">aws_cloudfront_distribution</text><rect width="234" height="39.789" x="442.5" y="206.58" fill="#3D176E" rx="2.5" ry="2.5" style="stroke:#000d19;stroke-width:.5"/><circle cx="457.5" cy="226.475" r="11" fill="#ADD1B2" style="stroke:#181818;stroke-width:1"/><path d="M460.469 232.115q-.578.297-1.219.438-.64.156-1.344.156-2.5 0-3.828-1.64-1.312-1.657-1.312-4.782t1.312-4.781q1.328-1.656 3.828-1.656.703 0 1.344.156.656.156 1.219.453v2.719q-.625-.578-1.219-.844-.594-.281-1.219-.281-1.344 0-2.031 1.078-.687 1.062-.687 3.156t.687 3.172q.688 1.062 2.031 1.062.625 0 1.219-.265.594-.281 1.219-.86z"/><text x="476.5" y="232.36" fill="#D9B8FF" font-family="Helvetica" font-size="17" textLength="192">aws_cognito_user_pool</text><rect width="191" height="39.789" x="184" y="106.79" fill="#3D176E" rx="2.5" ry="2.5" style="stroke:#000d19;stroke-width:.5"/><circle cx="199" cy="126.684" r="11" fill="#ADD1B2" style="stroke:#181818;stroke-width:1"/><path d="M201.969 132.325q-.578.297-1.219.438-.64.156-1.344.156-2.5 0-3.828-1.64-1.312-1.657-1.312-4.782t1.312-4.781q1.328-1.656 3.828-1.656.703 0 1.344.156.656.156 1.219.453v2.719q-.625-.579-1.219-.844-.594-.281-1.219-.281-1.344 0-2.031 1.078-.687 1.062-.687 3.156t.687 3.172q.688 1.062 2.031 1.062.625 0 1.219-.265.594-.281 1.219-.86z"/><text x="218" y="132.57" fill="#D9B8FF" font-family="Helvetica" font-size="17" textLength="149">aws_waf_web_acl</text><path fill="none" d="M279.5 47.22v53.19" style="stroke:#1a83af;stroke-width:2"/><path fill="#1A83AF" d="m279.5 106.41 4-9-4 4-4-4z" style="stroke:#1a83af;stroke-width:2"/><path fill="none" d="M236.43 147.01c-38.22 17.14-88.286 39.593-126.476 56.733" style="stroke:#1a83af;stroke-width:2"/><path fill="#1A83AF" d="m104.48 206.2 9.849-.036-5.287-2.011 2.011-5.287z" style="stroke:#1a83af;stroke-width:2"/><path fill="none" d="M279.5 147.01v53.19" style="stroke:#1a83af;stroke-width:2"/><path fill="#1A83AF" d="m279.5 206.2 4-9-4 4-4-4z" style="stroke:#1a83af;stroke-width:2"/><path fill="none" d="M334.82 147.01c49.09 17.14 114.756 40.071 163.816 57.211" style="stroke:#1a83af;stroke-width:2"/><path fill="#1A83AF" d="m504.3 206.2-7.177-6.744 2.457 5.095-5.096 2.457z" style="stroke:#1a83af;stroke-width:2"/></svg>
